dist/img/catalog/discount_decor_6.svg

<svg width="165" height="164" viewBox="0 0 165 164" fill="none" xmlns="http://www.w3.org/2000/svg">
<path d="M16.5 82.5V146.143C16.5 151.998 20.8216 156.75 26.125 156.75H74.25V82.5H16.5Z" fill="#EDF0F6"/>
<path d="M147.469 45.8863H118.103C120.21 44.4208 122.02 42.9648 123.282 41.6601C130.772 33.9924 130.772 21.5124 123.282 13.8447C116.005 6.37563 103.327 6.39454 96.0599 13.8447C92.0318 17.9575 81.3584 34.7015 82.8341 45.8863H82.1659C83.6323 34.7015 72.9589 17.9575 68.9401 13.8447C61.6636 6.39454 48.9854 6.39454 41.7182 13.8447C34.2375 21.5124 34.2375 33.9924 41.7089 41.6601C42.9804 42.9648 44.7903 44.4208 46.8971 45.8863H17.5312C12.4173 45.8863 8.25 50.1314 8.25 55.3409V69.5227C8.25 72.1322 10.329 74.25 12.8906 74.25H73.2188V55.3409H91.7812V74.25H152.109C154.671 74.25 156.75 72.1322 156.75 69.5227V55.3409C156.75 50.1314 152.592 45.8863 147.469 45.8863ZM72.6712 45.5743C72.6712 45.5743 72.2813 45.8863 70.9541 45.8863C64.5408 45.8863 52.2988 39.0979 48.2986 34.9946C44.4098 31.0048 44.4098 24.5 48.2986 20.5102C50.1827 18.5815 52.6793 17.5226 55.3338 17.5226C57.9789 17.5226 60.4756 18.5815 62.3597 20.5102C68.6152 26.9204 74.8337 43.2957 72.6712 45.5743ZM94.0366 45.8863C92.7187 45.8863 92.3288 45.5837 92.3288 45.5743C90.1663 43.2957 96.3848 26.9204 102.64 20.5102C106.381 16.6622 112.924 16.6433 116.701 20.5102C120.6 24.5 120.6 31.0048 116.701 34.9946C112.701 39.0979 100.459 45.8863 94.0366 45.8863Z" fill="#EDF0F6"/>
<path d="M90.75 82.5V156.75H138.875C144.188 156.75 148.5 151.998 148.5 146.143V82.5H90.75Z" fill="#EDF0F6"/>
</svg>

<svg width="165" height="164" viewBox="0 0 165 164" fill="none" xmlns="http://www.w3.org/2000/svg"><path d="M16.5 82.5v63.643c0 5.855 4.322 10.607 9.625 10.607H74.25V82.5H16.5zm130.969-36.614h-29.366c2.107-1.465 3.917-2.921 5.179-4.226 7.49-7.668 7.49-20.148 0-27.815-7.277-7.47-19.955-7.45-27.222 0-4.028 4.112-14.702 20.857-13.226 32.041h-.668c1.466-11.184-9.207-27.929-13.226-32.041-7.276-7.45-19.955-7.45-27.222 0-7.48 7.667-7.48 20.147-.01 27.815 1.272 1.305 3.082 2.76 5.19 4.226H17.53c-5.114 0-9.281 4.245-9.281 9.455v14.182c0 2.61 2.079 4.727 4.64 4.727H73.22V55.34h18.56v18.91h60.328c2.562 0 4.641-2.118 4.641-4.727V55.34c0-5.21-4.158-9.455-9.281-9.455zm-74.798-.312s-.39.312-1.717.312c-6.413 0-18.655-6.788-22.655-10.891-3.89-3.99-3.89-10.495 0-14.485 1.884-1.929 4.38-2.987 7.035-2.987 2.645 0 5.142 1.058 7.026 2.987 6.255 6.41 12.474 22.786 10.311 25.064zm21.366.312c-1.318 0-1.708-.302-1.708-.312-2.163-2.278 4.056-18.654 10.311-25.064 3.741-3.848 10.284-3.867 14.061 0 3.899 3.99 3.899 10.495 0 14.485-4 4.103-16.242 10.891-22.664 10.891zM90.75 82.5v74.25h48.125c5.313 0 9.625-4.752 9.625-10.607V82.5H90.75z" fill="#EDF0F6"/></svg>
